X: 96
T: HOLLAND IS A FINE PLACE
B: O'Neill's 96
M: C
L: 1/8
Z: Transcribed by John Chambers <jc@trillian.mit.edu>
N: "Moderate"
N: "Collected by F.O'Neill"
K:A
dB \
| ">"A2A2 B2d2 | (e^def) (g2ag) | e2(dB) A2B2 | G6 dB |
| A2A2 B2d2 | (e^def) (g2ag) | e2dB A2A2 | A6 ||
|| (ef) \
| ">"g2B2 d2e2 | (a3f) (g2ag) | e2dB A2B2 | G6 dB |
| ">"A2A2 B2d2 | e^def (g2ag) | e2dB A2A2 | A6 ||


